src/assets/icons/weeks,fancy,05.svg

<svg width="48" height="48" viewBox="0 0 48 48" fill="none" xmlns="http://www.w3.org/2000/svg">
<rect opacity="0.2" x="4" y="6" width="40" height="40" rx="4" fill="black"/>
<path d="M24.0646 41.2784C28.5987 41.2784 31.6811 38.3253 31.6712 34.2088C31.6811 30.3111 28.9567 27.5071 25.2876 27.5071C23.4979 27.5071 21.9567 28.2528 21.2408 29.2571H21.1214L21.6484 24.1562H30.5476V20.6364H18.0987L17.1342 31.375L20.9624 32.0611C21.5888 31.2159 22.8018 30.6889 24.005 30.6889C26.0533 30.6989 27.5249 32.1804 27.5249 34.3182C27.5249 36.4361 26.0831 37.8977 24.0646 37.8977C22.3544 37.8977 20.9723 36.8239 20.8729 35.2429H16.6967C16.7763 38.7628 19.8487 41.2784 24.0646 41.2784Z" fill="black"/>
<g opacity="0.4">
<path d="M10 4C10 2.89543 10.8954 2 12 2C13.1046 2 14 2.89543 14 4V8C14 9.10457 13.1046 10 12 10C10.8954 10 10 9.10457 10 8V4Z" fill="black"/>
<path d="M34 4C34 2.89543 34.8954 2 36 2C37.1046 2 38 2.89543 38 4V8C38 9.10457 37.1046 10 36 10C34.8954 10 34 9.10457 34 8V4Z" fill="black"/>
</g>
<path fill-rule="evenodd" clip-rule="evenodd" d="M10 6.00869C7.52043 6.04456 6.11466 6.22849 5.17157 7.17157C4 8.34315 4 10.2288 4 14V16H44V14C44 10.2288 44 8.34315 42.8284 7.17157C41.8853 6.22849 40.4796 6.04456 38 6.00869V8C38 9.10457 37.1046 10 36 10C34.8954 10 34 9.10457 34 8V6H14V8C14 9.10457 13.1046 10 12 10C10.8954 10 10 9.10457 10 8V6.00869Z" fill="black"/>
</svg>

<svg xmlns="http://www.w3.org/2000/svg" width="48" height="48" fill="none" viewBox="0 0 48 48">
  <rect width="40" height="40" x="4" y="6" fill="#000" opacity=".2" rx="4"/>
  <path fill="#000" d="M24.065 41.278c4.534 0 7.616-2.953 7.606-7.07.01-3.897-2.714-6.7-6.383-6.7-1.79 0-3.331.745-4.047 1.75h-.12l.527-5.102h8.9v-3.52h-12.45l-.964 10.739 3.828.686c.627-.845 1.84-1.372 3.043-1.372 2.048.01 3.52 1.491 3.52 3.63 0 2.117-1.442 3.579-3.46 3.579-1.71 0-3.093-1.074-3.192-2.655h-4.176c.08 3.52 3.152 6.035 7.368 6.035z"/>
  <g opacity=".4">
    <path fill="#000" d="M10 4a2 2 0 114 0v4a2 2 0 11-4 0V4zM34 4a2 2 0 114 0v4a2 2 0 11-4 0V4z"/>
  </g>
  <path fill="#000" fill-rule="evenodd" d="M10 6.009c-2.48.036-3.885.22-4.828 1.163C4 8.343 4 10.229 4 14v2h40v-2c0-3.771 0-5.657-1.172-6.828-.943-.944-2.348-1.127-4.828-1.163V8a2 2 0 11-4 0V6H14v2a2 2 0 11-4 0V6.009z" clip-rule="evenodd"/>
</svg>
